icons/Device/cpu-line.svg

<svg xmlns="http://www.w3.org/2000/svg" viewBox="0 0 24 24">
    <g>
        <path fill="none" d="M0 0h24v24H0z"/>
        <path d="M6 18h12V6H6v12zm8 2h-4v2H8v-2H5a1 1 0 0 1-1-1v-3H2v-2h2v-4H2V8h2V5a1 1 0 0 1 1-1h3V2h2v2h4V2h2v2h3a1 1 0 0 1 1 1v3h2v2h-2v4h2v2h-2v3a1 1 0 0 1-1 1h-3v2h-2v-2zM8 8h8v8H8V8z"/>
    </g>
</svg>

<svg viewBox="0 0 24 24" xmlns="http://www.w3.org/2000/svg"><path d="M6 18H18V6H6V18ZM14 20H10V22H8V20H5C4.44772 20 4 19.5523 4 19V16H2V14H4V10H2V8H4V5C4 4.44772 4.44772 4 5 4H8V2H10V4H14V2H16V4H19C19.5523 4 20 4.44772 20 5V8H22V10H20V14H22V16H20V19C20 19.5523 19.5523 20 19 20H16V22H14V20ZM8 8H16V16H8V8Z"/></svg>
